img/icon_sign_in.svg

<svg width="37" height="37" viewBox="0 0 37 37" fill="none" xmlns="http://www.w3.org/2000/svg">
<path d="M0.75 18.5C0.75 28.2876 8.71243 36.25 18.5 36.25C28.2876 36.25 36.25 28.2876 36.25 18.5C36.25 8.71243 28.2876 0.75 18.5 0.75C8.71243 0.75 0.75 8.71243 0.75 18.5ZM2.41667 18.5C2.41667 9.6314 9.6314 2.41667 18.5 2.41667C27.3686 2.41667 34.5833 9.6314 34.5833 18.5C34.5833 27.3686 27.3686 34.5833 18.5 34.5833C9.6314 34.5833 2.41667 27.3686 2.41667 18.5Z" fill="white" stroke="white" stroke-width="0.5"/>
<path d="M7.90006 27.8706C7.90229 27.2912 8.14166 26.6722 8.50982 26.1529C8.8797 25.6311 9.3875 25.1988 9.93631 25.0065L9.93679 25.0064L15.8331 22.974L15.8331 22.974C16.0069 22.9142 16.132 22.7611 16.1547 22.5798L16.2141 21.8944L16.2144 21.8908L16.2145 21.8908C16.2474 21.6247 16.0588 21.3832 15.7955 21.3502C15.5343 21.3205 15.2894 21.5049 15.2549 21.7657L15.2411 22.0882L15.2382 22.1562L15.1738 22.1784L9.61858 24.0928C9.61848 24.0928 9.61839 24.0928 9.61829 24.0929C8.88329 24.3502 8.21112 24.9031 7.72227 25.5922C7.23336 26.2813 6.93337 27.0989 6.93337 27.8787L7.90006 27.8706ZM7.90006 27.8706H7.90004C7.90004 28.1384 7.68361 28.3539 7.41671 28.3539C7.14994 28.3539 6.93337 28.1373 6.93337 27.8706M7.90006 27.8706H6.93337M6.93337 27.8706H6.83338C6.83756 26.264 8.07144 24.5283 9.58554 23.9984L6.93337 27.8706ZM27.4464 23.904L27.4461 23.9039L21.9492 21.997L21.5801 19.044L21.5479 18.7864L21.399 18.999C21.1604 19.3397 20.8191 19.6047 20.3731 19.7438L20.2933 19.7686L20.3036 19.8516L20.6454 22.5871C20.6454 22.5872 20.6455 22.5873 20.6455 22.5874C20.6769 22.8454 20.8531 23.0643 21.0996 23.148C21.0997 23.148 21.0998 23.1481 21.0999 23.1481L26.9966 25.1965C27.4972 25.3711 27.9743 25.7715 28.327 26.2688C28.6797 26.7661 28.9 27.3492 28.9 27.8799H28.9001C28.9045 28.2534 29.2089 28.5551 29.5834 28.5551C29.9592 28.5551 30.2653 28.2504 30.2667 27.8744V27.8738C30.2649 27.045 29.9469 26.189 29.439 25.4741C28.9311 24.7591 28.2279 24.1775 27.4464 23.904ZM9.55296 23.9039L9.55251 23.904C8.77095 24.1776 8.06715 24.7604 7.55915 25.4765C7.05281 26.1902 6.73546 27.0441 6.73338 27.8706H6.73337V27.8787H6.73342C6.7378 28.2522 7.0422 28.5539 7.41671 28.5539C7.79109 28.5539 8.09563 28.2535 8.09999 27.8787H8.10004C8.10004 27.3486 8.3204 26.7659 8.67297 26.2685C9.02549 25.7713 9.50226 25.3706 10.0022 25.1954C10.0023 25.1953 10.0024 25.1953 10.0024 25.1953L15.8983 23.1631C16.144 23.0785 16.322 22.8613 16.3535 22.6023L16.3535 22.6023L16.3538 22.5989L16.4132 21.9134C16.4585 21.5388 16.1926 21.1981 15.8197 21.1517L15.8188 21.1516C15.4515 21.1094 15.1027 21.3686 15.056 21.7449L15.0556 21.7449L15.0553 21.7529L15.0442 22.0116L9.55296 23.9039Z" fill="white" stroke="white" stroke-width="0.2"/>
<path d="M13.4989 13.3317L13.4989 13.3318C13.5042 16.0359 13.9192 17.9473 14.7547 19.1846C15.5961 20.4304 16.8537 20.9787 18.5001 20.9787C20.1464 20.9787 21.404 20.4304 22.2455 19.1847C23.0813 17.9476 23.4966 16.0365 23.5024 13.333V13.3329C23.5048 11.9545 23.3581 10.5326 22.0417 9.21497C21.1968 8.36766 20.0018 7.94541 18.5001 7.94541C16.9984 7.94541 15.8033 8.36764 14.9596 9.2138C13.6432 10.5326 13.4966 11.9533 13.4989 13.3317ZM21.0717 10.1798L21.0718 10.1799C21.435 10.5437 21.698 10.8819 21.8721 11.3488C22.0471 11.818 22.1351 12.4251 22.1334 13.3302C22.1287 15.6699 21.8208 17.2422 21.2163 18.2274C20.9155 18.7177 20.5413 19.0625 20.0928 19.2856C19.6434 19.5092 19.1138 19.6132 18.4989 19.6132C17.884 19.6132 17.3544 19.5092 16.905 19.2856C16.4565 19.0625 16.0823 18.7177 15.7815 18.2274C15.1771 17.2422 14.8691 15.6699 14.8644 13.3302C14.8627 12.4251 14.9507 11.818 15.1257 11.3488C15.2998 10.8819 15.5628 10.5437 15.926 10.1799C16.5043 9.60167 17.3393 9.31208 18.5001 9.31208C19.661 9.31208 20.4959 9.60172 21.0717 10.1798Z" fill="white" stroke="white" stroke-width="0.2"/>
</svg>

<svg width="37" height="37" fill="none" xmlns="http://www.w3.org/2000/svg"><path d="M.75 18.5c0 9.788 7.962 17.75 17.75 17.75s17.75-7.962 17.75-17.75S28.288.75 18.5.75.75 8.712.75 18.5zm1.667 0C2.417 9.631 9.63 2.417 18.5 2.417c8.869 0 16.083 7.214 16.083 16.083 0 8.869-7.214 16.083-16.083 16.083-8.869 0-16.083-7.214-16.083-16.083z" fill="#fff" stroke="#fff" stroke-width=".5"/><path d="M7.9 27.87c.002-.579.242-1.198.61-1.717.37-.522.877-.954 1.426-1.146h0l5.897-2.033h0a.481.481 0 00.322-.394l.06-.686v-.003h0a.484.484 0 00-.42-.54.49.49 0 00-.54.415l-.014.322-.003.068-.064.022-5.555 1.915s0 0 0 0c-.736.257-1.408.81-1.897 1.5-.489.688-.789 1.506-.789 2.286l.967-.008zm0 0h0a.483.483 0 11-.967 0m.967 0h-.967m0 0h-.1c.005-1.606 1.238-3.342 2.753-3.872l-2.653 3.873zm20.513-3.966h0l-5.497-1.907-.369-2.953-.032-.258-.149.213c-.239.34-.58.606-1.026.745l-.08.025.01.083.342 2.735s0 0 0 0a.679.679 0 00.455.561s0 0 0 0l5.897 2.049c.5.174.977.575 1.33 1.072.353.497.573 1.08.573 1.61h0a.684.684 0 001.367-.005v0c-.002-.829-.32-1.685-.828-2.4-.508-.715-1.211-1.297-1.993-1.57zm-17.893 0h0c-.782.274-1.486.856-1.994 1.573-.506.713-.824 1.567-.826 2.394h0v.008h0a.684.684 0 001.367 0h0c0-.53.22-1.113.573-1.61.352-.498.83-.898 1.33-1.074 0 0 0 0 0 0l5.895-2.032a.681.681 0 00.456-.56h0v-.004l.06-.686a.684.684 0 00-.594-.761h-.001a.69.69 0 00-.763.593h0v.008l-.012.259-5.491 1.892z" fill="#fff" stroke="#fff" stroke-width=".2"/><path d="M13.499 13.332h0c.005 2.704.42 4.615 1.256 5.853.841 1.245 2.099 1.794 3.745 1.794s2.904-.549 3.745-1.794c.836-1.237 1.252-3.148 1.257-5.852v0c.003-1.379-.144-2.8-1.46-4.118-.845-.847-2.04-1.27-3.542-1.27-1.502 0-2.697.423-3.54 1.269-1.317 1.319-1.463 2.74-1.461 4.118zm7.573-3.152h0c.363.364.626.702.8 1.169.175.469.263 1.076.261 1.981-.004 2.34-.312 3.912-.917 4.897-.3.49-.675.835-1.123 1.059-.45.223-.98.327-1.594.327-.615 0-1.145-.104-1.594-.327-.449-.224-.823-.568-1.124-1.059-.604-.985-.912-2.557-.917-4.897-.001-.905.087-1.512.262-1.981.174-.467.437-.805.8-1.17.578-.577 1.413-.867 2.574-.867 1.161 0 1.996.29 2.572.868z" fill="#fff" stroke="#fff" stroke-width=".2"/></svg>
